X: 69
T: No_160_Song_for_Success_in_Hunting.krn
N: Derived from No_160_Song_for_Success_in_Hunting.krn
%%abc-version 2.0
%%abcx-abcm2ps-target-version 5.9.1 (29 Sep 2008)
%%abc-creator hum2abc beta
%%abcx-conversion-date 2019/03/15 08:37:56
%%humdrum-veritas 1865647385
%%humdrum-veritas-data 3259653002
%%linebreak <none>
%%barnumbers 0
L: 1/8
M: 3/4
K: F clef=bass
[K:clef=bass][M:3/4]F,F, F,F, A,A, ||  
[M:2/4]G,3G, ||  
[M:3/4]A,2A,A, G,G, ||  
[M:2/4]F,3D, | 
G,2G,G, | 
G,2F,F, | 
D,2C,C, | 
C,C, C,C, | 
C,2z F, | 
F,3C, | 
F,F,F,2 | 
F,F,F,2 | 
F,F,F,2 | 
F,F,F,2 |]  



